ligands/bidentate/oxalate.svg

<svg height="256" viewBox="0 0 256 256" width="256" xmlns="http://www.w3.org/2000/svg"><path d="m0 0h256v256h-256z" fill="#fff"/><ellipse cx="146.1" cy="218.2" fill="#ff7f7f" fill-rule="evenodd" rx="23.5" ry="23.5" stroke="#ff7f7f"/><g fill="none" stroke="#000" stroke-width="2"><path d="m60 56.7 41.1 45.1"/><path d="m51.3 64.6 41.1 45.1"/><path d="m93.9 102.6-12.9 62.2"/><path d="m93.9 102.6 77.9-8.6"/><path d="m174.8 100.6 28.1-49.2"/><path d="m164.6 94.8 28.1-49.3"/><path d="m171.8 94 25.7 56.9"/><path d="m92.6 187.7 38.9 22.2"/><path d="m189.5 178.7-28.8 26.2"/><path d="m93.2 105.7.7-3.1 3.9-.4" stroke-miterlimit="10"/><path d="m167.9 94.4 3.9-.4 1.3 2.8" stroke-miterlimit="10"/></g><text font-family="sans-serif" font-size="40" x="29.1" y="64.6">O</text><text font-family="sans-serif" font-size="40" x="66" y="199.4">O</text><text font-family="sans-serif" font-size="26" x="93.6" y="183.4">-</text><text x="134.1" y="238.2"/><text font-family="sans-serif" font-size="40" x="192.1" y="185.4">O</text><text font-family="sans-serif" font-size="26" x="219.7" y="169.4">-</text><text font-family="sans-serif" font-size="40" x="198.7" y="45.9">O</text></svg>

<?xml version='1.0' encoding='iso-8859-1'?>
<svg version='1.1' baseProfile='full'
              xmlns='http://www.w3.org/2000/svg'
                      xmlns:rdkit='http://www.rdkit.org/xml'
                      xmlns:xlink='http://www.w3.org/1999/xlink'
                  xml:space='preserve'
width='256px' height='256px' viewBox='0 0 256 256'>
<!-- END OF HEADER -->
<rect style='opacity:1.0;fill:#FFFFFF;stroke:none' width='256.0' height='256.0' x='0.0' y='0.0'> </rect>
<ellipse cx='146.1' cy='218.2' rx='23.5' ry='23.5' class='atom-3'  style='fill:#FF7F7F;fill-rule:evenodd;stroke:#FF7F7F;stroke-width:1.0px;stroke-linecap:butt;stroke-linejoin:miter;stroke-opacity:1' />
<path class='bond-0 atom-0 atom-1' d='M 60.0,56.7 L 101.1,101.8' style='fill:none;fill-rule:evenodd;stroke:#000000;stroke-width:2.0px;stroke-linecap:butt;stroke-linejoin:miter;stroke-opacity:1' />
<path class='bond-0 atom-0 atom-1' d='M 51.3,64.6 L 92.4,109.7' style='fill:none;fill-rule:evenodd;stroke:#000000;stroke-width:2.0px;stroke-linecap:butt;stroke-linejoin:miter;stroke-opacity:1' />
<path class='bond-1 atom-1 atom-2' d='M 93.9,102.6 L 81.0,164.8' style='fill:none;fill-rule:evenodd;stroke:#000000;stroke-width:2.0px;stroke-linecap:butt;stroke-linejoin:miter;stroke-opacity:1' />
<path class='bond-2 atom-1 atom-5' d='M 93.9,102.6 L 171.8,94.0' style='fill:none;fill-rule:evenodd;stroke:#000000;stroke-width:2.0px;stroke-linecap:butt;stroke-linejoin:miter;stroke-opacity:1' />
<path class='bond-3 atom-5 atom-6' d='M 174.8,100.6 L 202.9,51.4' style='fill:none;fill-rule:evenodd;stroke:#000000;stroke-width:2.0px;stroke-linecap:butt;stroke-linejoin:miter;stroke-opacity:1' />
<path class='bond-3 atom-5 atom-6' d='M 164.6,94.8 L 192.7,45.5' style='fill:none;fill-rule:evenodd;stroke:#000000;stroke-width:2.0px;stroke-linecap:butt;stroke-linejoin:miter;stroke-opacity:1' />
<path class='bond-4 atom-5 atom-4' d='M 171.8,94.0 L 197.5,150.9' style='fill:none;fill-rule:evenodd;stroke:#000000;stroke-width:2.0px;stroke-linecap:butt;stroke-linejoin:miter;stroke-opacity:1' />
<path class='bond-5 atom-2 atom-3' d='M 92.6,187.7 L 131.5,209.9' style='fill:none;fill-rule:evenodd;stroke:#000000;stroke-width:2.0px;stroke-linecap:butt;stroke-linejoin:miter;stroke-opacity:1' />
<path class='bond-6 atom-4 atom-3' d='M 189.5,178.7 L 160.7,204.9' style='fill:none;fill-rule:evenodd;stroke:#000000;stroke-width:2.0px;stroke-linecap:butt;stroke-linejoin:miter;stroke-opacity:1' />
<path d='M 93.2,105.7 L 93.9,102.6 L 97.8,102.2' style='fill:none;stroke:#000000;stroke-width:2.0px;stroke-linecap:butt;stroke-linejoin:miter;stroke-miterlimit:10;stroke-opacity:1;' />
<path d='M 167.9,94.4 L 171.8,94.0 L 173.1,96.8' style='fill:none;stroke:#000000;stroke-width:2.0px;stroke-linecap:butt;stroke-linejoin:miter;stroke-miterlimit:10;stroke-opacity:1;' />
<text x='29.1' y='64.6' class='atom-0' style='font-size:40px;font-style:normal;font-weight:normal;fill-opacity:1;stroke:none;font-family:sans-serif;text-anchor:start;fill:#000000' >O</text>
<text x='66.0' y='199.4' class='atom-2' style='font-size:40px;font-style:normal;font-weight:normal;fill-opacity:1;stroke:none;font-family:sans-serif;text-anchor:start;fill:#000000' >O</text>
<text x='93.6' y='183.4' class='atom-2' style='font-size:26px;font-style:normal;font-weight:normal;fill-opacity:1;stroke:none;font-family:sans-serif;text-anchor:start;fill:#000000' >-</text>
<text x='134.1' y='238.2' class='atom-3' style='font-size:40px;font-style:normal;font-weight:normal;fill-opacity:1;stroke:none;font-family:sans-serif;text-anchor:start;fill:#000000' ></text>
<text x='192.1' y='185.4' class='atom-4' style='font-size:40px;font-style:normal;font-weight:normal;fill-opacity:1;stroke:none;font-family:sans-serif;text-anchor:start;fill:#000000' >O</text>
<text x='219.7' y='169.4' class='atom-4' style='font-size:26px;font-style:normal;font-weight:normal;fill-opacity:1;stroke:none;font-family:sans-serif;text-anchor:start;fill:#000000' >-</text>
<text x='198.7' y='45.9' class='atom-6' style='font-size:40px;font-style:normal;font-weight:normal;fill-opacity:1;stroke:none;font-family:sans-serif;text-anchor:start;fill:#000000' >O</text>
</svg>
